X:1
T: Across The Divide
C:Mary Custy
M: 3/4
L: 1/8
R: waltz
K:Gmaj
Bc|d3 edc|B2 G2 AB|c3 BAG|F2 D2 EF|
G3 FGD|E/F/G A2 Bc|d^cd fga|gfd2 Bc|
d3 edc|B2 G2 AB|c3 BAG|F2 D2 EF|
G3 FGD|E/F/G A2 Bc|d2 g2 af|g4:|
K:Gdor
d2|g3 ^fgd|^cd =cB G2|f3 cAG|F2 GF D2|
G2D2 (3EFG|AB c2 A2|d3 ^fga|g^f d2 ef|
g3 ^fgd|^cd =cB G2|f3 cAG|F2 GF D2|
G2D2 (3EFG|AB c2 A2|d2 g2 a^f|g3 z:|
